X: 523
T: Cânândan Uzak Kaldı Gönül
C: Nev´eser Kökdeş
O: Turkey
F: http://compmusic.upf.edu/node/140
N: kurdilihicazkar--sarki--semai--canandan_uzak--neveser_kokdes
N: makam= kurdilihicazkar
N: form= sarki
N: usul= semai = 3/4
M: 3/4
L: 1/16
K: C _B _e _A 
Q: 1/4=120
%%MIDI tuningsystem comma53
g2{a}gf g4 d4  | e4 d4 c4  | B8 c4  | d12  | \
w:  ARANAĞME  |   |   |   | 
G4 A4 B4  | c4 A4 F4  | G12  | G8 z4  | g2{a}gf g4 d4  | 
w:   |   |   |   |  ARANAĞME  | 
e4 d4 c4  | B8 c4  | d12  | G4 A4 B4  | c4 A4 F4  | G12  | \
w:   |   |   |   |   |   | 
G8 z4  | g4 f4 e4  | d4 e4 c4  | 
w:   |  Câ  |  nân  | 
B4 A4 G4  | c8 z4  | G4 A4 B4  | G4 A4 F2G2  | G12  | \
w:  dan_ *  u  |  zak   |  kal  |  dı  *  gö  |  nül    | 
G8 z4  | f4 =e4 f4  | g12  | g4 =a4 f4  | 
w:   |  Has  |  re  |  tin  | 
e4 d4 c4  | d4 =e4 f4  | e4 d4 c2d2  | d12  | d12  | \
w:  den   |  yan  |  dı  *  gö  |  nül    |   | 
g4 f4 e4  | d4 e4 c4  | B4 A4 G4  | 
w:  Câ  |  nân  |  dan_ *  u  | 
c8 z4  | G4 A4 B4  | G4 A4 F2G2  | G12  | G8 z4  | \
w:  zak   |  kal  |  dı  *  gö  |  nül    |   | 
f4 =e4 f4  | g12  | g4 =a4 f4  | e4 d4 c4  | 
w:  Has  |  re  |  tin  |  den   | 
d4 =e4 f4  | e4 d4 c2d2  | d12  | d12  | B4 e8  | \
w:  yan  |  dı  *  gö  |  nül    |   |  Ü mit  | 
e2{f}ed e4 z4  | f4 g4 a2g2  | {a}g12  | 
w:  siz   |  ol *  sa   |  *  da   | 
f4 e4 d4  | c4 B4 c4  | d12  | g12  | f4 e4 d4  | \
w:  va ad_ e  |  der  *  gö  |  nül    |   |  Bir   | 
c4 d4 B4  | A4 G4 F4  | c12  | G4 A4 B4  | 
w:  gün   |  şâd_ *  o  |  la  |  cak  | 
G4 A4 F2G2  | G12  | G8 z4  | B4 e8  | e2{f}ed e4 z4  | \
w:  tır  *  gö  |  nül    |   |  Ü mit  |  siz   | 
f4 g4 a2g2  | {a}g12  | f4 e4 d4  | 
w:  ol *  sa   |  *  da   |  va ad_ e  | 
c4 B4 c4  | d12  | g12  | f4 e4 d4  | c4 d4 B4  | \
w:  der  *  gö  |  nül    |   |  Bir   |  gün   | 
A4 G4 F4  | c12  | G4 A4 B4  | G4 A4 F2G2  | 
w:  şâd_ *  o  |  la  |  cak  |  tır  *  gö  | 
G12  | G8 z4  | b12  | b8 a4  | a4 g4 f4  | g12  | \
w:  nül    |   |  Sab  |  ra   |  kal *  ma  |  dı   | 
g4 =a4 =b4  | c'4 b4 =a4  | g4 a2g2 f2=e2  | 
w:  ar  |  tık  *  me  |  câ  | 
f12  | c'4 =b4 c'4  | d'12  | c'4 b4 =a4  | \
w:  lim    |  Sev *  gi  |  li   |  bek *  li  | 
g4 f4 =e4  | =e4 f4 g4  | g4 =a4 f4  | g4 f2e2 e2d2  | 
w:  yor   |  se  |  ni   |  gö  | 
d12  | d8 z4  | b12  | b8 a4  | a4 g4 f4  | g12  | \
w:  nül    |   |  Sab  |  ra   |  kal *  ma  |  dı   | 
g4 =a4 =b4  | c'4 b4 =a4  | g4 a2g2 f2=e2  | 
w:  ar  |  tık  *  me  |  câ  | 
f12  | c'4 =b4 c'4  | d'12  | c'4 b4 =a4  | \
w:  lim    |  Sev *  gi  |  li   |  bek *  li  | 
g4 f4 =e4  | =e4 f4 g4  | g4 =a4 f4  | g4 f2e2 e2d2  | 
w:  yor   |  se  |  ni   |  gö  | 
d12  | d8 z4  | B4 e8  | e2{f}ed e4 z4  | f4 g4 a2g2  | \
w:  nül    |   |  Ü mit  |  siz   |  ol *  sa   | 
{a}g12  | f4 e4 d4  | c4 B4 c4  | 
w:  *  da   |  va ad_ e  |  der  *  gö  | 
d12  | g12  | f4 e4 d4  | c4 d4 B4  | A4 G4 F4  | c12  | \
w:  nül    |   |  Bir   |  gün   |  şâd_ *  o  |  la  | 
G4 A4 B4  | G4 A4 F2G2  | G12  | G8 z4  | 
w:  cak  |  tır  *  gö  |  nül    |   | 
B4 e8  | e2{f}ed e4 z4  | f4 g4 a2g2  | \
w:  Ü mit  |  siz   |  ol *  sa   | 
{a}g12  | f4 e4 d4  | c4 B4 c4  | d12  | g12  | \
w:  *  da   |  va ad_ e  |  der  *  gö  |  nül    |   | 
f4 e4 d4  | 
w:  Bir   | 
c4 d4 B4  | A4 G4 F4  | c12  | G4 A4 B4  | \
w:  gün   |  şâd_ *  o  |  la  |  cak  | 
G4 A4 F2G2  | G12  | G8 z4  | |


